Flat-Remix-Black-Dark/status/symbolic/notification-disabled-symbolic.svg

<svg width="16" height="16" version="1.1" xmlns="http://www.w3.org/2000/svg">
 <defs>
  <style id="current-color-scheme" type="text/css">.ColorScheme-Text { color:#dfdfdf; } .ColorScheme-Highlight { color:#367bf0; } .ColorScheme-NeutralText { color:#ffcc44; } .ColorScheme-PositiveText { color:#3db47e; } .ColorScheme-NegativeText { color:#dd4747; }</style>
 </defs>
 <path class="ColorScheme-Text" d="m8 1c-0.55 0-1 0.45-1 1 0 0.03-2.344e-4 0.0696094 0.0097656 0.0996094-0.4968 0.0998-0.959125 0.2854312-1.390625 0.5195312l7.3808594 7.3808594v-1-2c0-2.43-1.719966-4.4403906-4.0097656-4.9003906 0.01-0.03 0.0097656-0.0696094 0.0097656-0.0996094 0-0.55-0.45-1-1-1zm-5.5 0.5-1.5 1.5 2.3066406 2.3066406c-0.1940181 0.5282706-0.3066406 1.0952531-0.3066406 1.6933594v4.5l-2 2v0.5h2 9l1.5 1.5 1.5-1.5-12.5-12.5zm3.7695312 13.5c0.3600001 0.62 1.0204688 1 1.7304688 1s1.3704688-0.38 1.7304688-1h-3.4609376z" style="fill:currentColor;opacity:.35"/>
</svg>

<svg xmlns="http://www.w3.org/2000/svg" width="16" height="16" version="1.1">
 <path style="fill:#5c616c;opacity:.35" d="M 8 1 C 7.45 1 7 1.45 7 2 C 7 2.03 6.9997656 2.0696094 7.0097656 2.0996094 C 6.5129656 2.1994094 6.0506406 2.3850406 5.6191406 2.6191406 L 13 10 L 13 9 L 13 7 C 13 4.57 11.280034 2.5596094 8.9902344 2.0996094 C 9.0002344 2.0696094 9 2.03 9 2 C 9 1.45 8.55 1 8 1 z M 2.5 1.5 L 1 3 L 3.3066406 5.3066406 C 3.1126225 5.8349112 3 6.4018937 3 7 L 3 11.5 L 1 13.5 L 1 14 L 3 14 L 12 14 L 13.5 15.5 L 15 14 L 2.5 1.5 z M 6.2695312 15 C 6.6295313 15.62 7.29 16 8 16 C 8.71 16 9.3704688 15.62 9.7304688 15 L 6.2695312 15 z"/>
</svg>
